static/img/index/partners/CoParse_color_light.svg

<svg width="170" height="34" viewBox="0 0 170 34" fill="none" xmlns="http://www.w3.org/2000/svg">
<path d="M15.6885 33.5391C17.9495 33.5391 20.001 33.1198 21.8428 32.2812C23.6846 31.4427 25.2194 30.2598 26.4473 28.7324C27.6751 27.1901 28.4912 25.3857 28.8955 23.3193L28.9404 23.0947H24.8525L24.7852 23.2969C24.321 24.7194 23.6621 25.9173 22.8086 26.8906C21.9551 27.849 20.9294 28.5752 19.7314 29.0693C18.5485 29.5635 17.2008 29.8105 15.6885 29.8105C13.5472 29.8105 11.6755 29.2715 10.0732 28.1934C8.47103 27.1152 7.22819 25.6029 6.34473 23.6562C5.47624 21.6947 5.04199 19.4036 5.04199 16.7832V16.7607C5.04199 14.1253 5.47624 11.8418 6.34473 9.91016C7.22819 7.96354 8.46354 6.45866 10.0508 5.39551C11.653 4.31738 13.5322 3.77832 15.6885 3.77832C17.2158 3.77832 18.5785 4.02539 19.7764 4.51953C20.9743 5.01367 21.985 5.72493 22.8086 6.65332C23.6471 7.56673 24.276 8.68229 24.6953 10L24.8525 10.4941H28.9404L28.8955 10.2695C28.4912 8.2181 27.6676 6.42871 26.4248 4.90137C25.1969 3.37402 23.6621 2.18359 21.8203 1.33008C19.9785 0.476562 17.9346 0.0498047 15.6885 0.0498047C12.6787 0.0498047 10.0658 0.738607 7.84961 2.11621C5.63346 3.47884 3.91895 5.41048 2.70605 7.91113C1.49316 10.4118 0.886719 13.3617 0.886719 16.7607V16.7832C0.886719 20.1823 1.49316 23.1396 2.70605 25.6553C3.91895 28.1559 5.63346 30.0951 7.84961 31.4727C10.0807 32.8503 12.6937 33.5391 15.6885 33.5391Z" fill="black"/>
<path d="M42.7988 33.4492C44.9551 33.4492 46.8418 32.9551 48.459 31.9668C50.0762 30.9785 51.334 29.5785 52.2324 27.7666C53.1458 25.9548 53.6025 23.806 53.6025 21.3203V21.2754C53.6025 18.7897 53.1458 16.6484 52.2324 14.8516C51.334 13.0397 50.0687 11.6471 48.4365 10.6738C46.8193 9.68555 44.9326 9.19141 42.7764 9.19141C40.6351 9.19141 38.7484 9.68555 37.1162 10.6738C35.499 11.6471 34.2337 13.0397 33.3203 14.8516C32.4219 16.6484 31.9727 18.7897 31.9727 21.2754V21.3203C31.9727 23.791 32.4219 25.9398 33.3203 27.7666C34.2337 29.5785 35.499 30.9785 37.1162 31.9668C38.7484 32.9551 40.6426 33.4492 42.7988 33.4492ZM42.8213 29.9902C41.4437 29.9902 40.2383 29.6533 39.2051 28.9795C38.1868 28.2907 37.3932 27.3024 36.8242 26.0146C36.2552 24.7119 35.9707 23.1471 35.9707 21.3203V21.2754C35.9707 19.4486 36.2552 17.8988 36.8242 16.626C37.3932 15.3382 38.1868 14.3574 39.2051 13.6836C40.2383 12.9948 41.4287 12.6504 42.7764 12.6504C44.154 12.6504 45.3519 12.9873 46.3701 13.6611C47.4033 14.335 48.1969 15.3158 48.751 16.6035C49.32 17.8913 49.6045 19.4486 49.6045 21.2754V21.3203C49.6045 23.1471 49.32 24.7119 48.751 26.0146C48.1969 27.3024 47.4108 28.2907 46.3926 28.9795C45.3893 29.6533 44.1989 29.9902 42.8213 29.9902Z" fill="black"/>
<path d="M60.1836 21.4326H69.707C71.7435 21.4326 73.5404 20.9909 75.0977 20.1074C76.6549 19.224 77.8753 17.9961 78.7588 16.4238C79.6572 14.8516 80.1064 13.0397 80.1064 10.9883V10.9434C80.1064 8.89193 79.6572 7.08757 78.7588 5.53027C77.8753 3.97298 76.6549 2.76009 75.0977 1.8916C73.5404 1.02311 71.7435 0.588867 69.707 0.588867H60.1836V4.18262H68.6738C70.9948 4.18262 72.7917 4.78158 74.0645 5.97949C75.3372 7.17741 75.9736 8.84701 75.9736 10.9883V11.0332C75.9736 13.1595 75.3372 14.8291 74.0645 16.042C72.7917 17.2399 70.9948 17.8389 68.6738 17.8389H60.1836V21.4326ZM58.1621 33H62.2051V0.588867H58.1621V33Z" fill="black"/>
<path d="M88.9561 33.4492C90.0042 33.4492 90.9925 33.277 91.9209 32.9326C92.8643 32.5732 93.7103 32.0791 94.459 31.4502C95.2077 30.8063 95.8066 30.0576 96.2559 29.2041H96.3457V33H100.254V16.8506C100.254 15.2933 99.887 13.9456 99.1533 12.8076C98.4196 11.6546 97.3789 10.7637 96.0312 10.1348C94.6986 9.50586 93.1113 9.19141 91.2695 9.19141C89.4427 9.19141 87.863 9.50586 86.5303 10.1348C85.1976 10.7487 84.1494 11.5798 83.3857 12.6279C82.637 13.6761 82.2028 14.8441 82.083 16.1318L82.0605 16.3789H85.834L85.8789 16.1768C86.1035 15.1286 86.6725 14.2826 87.5859 13.6387C88.5143 12.9798 89.7272 12.6504 91.2246 12.6504C92.8568 12.6504 94.1146 13.0622 94.998 13.8857C95.8965 14.6943 96.3457 15.8099 96.3457 17.2324V24.1279C96.3457 25.251 96.0537 26.2617 95.4697 27.1602C94.9007 28.0586 94.1221 28.7699 93.1338 29.2939C92.1605 29.8031 91.0599 30.0576 89.832 30.0576C88.4245 30.0576 87.2939 29.7282 86.4404 29.0693C85.6019 28.4105 85.1826 27.5195 85.1826 26.3965V26.3516C85.1826 25.2585 85.6094 24.3825 86.4629 23.7236C87.3314 23.0648 88.5443 22.6904 90.1016 22.6006L98.2998 22.1064V19.0742L89.6523 19.5684C86.972 19.7181 84.8906 20.3919 83.4082 21.5898C81.9258 22.7728 81.1846 24.36 81.1846 26.3516V26.3965C81.1846 27.804 81.5065 29.0394 82.1504 30.1025C82.8092 31.1657 83.7227 31.9893 84.8906 32.5732C86.0586 33.1572 87.4137 33.4492 88.9561 33.4492Z" fill="black"/>
<path d="M105.218 33H109.126V18.5801C109.126 17.3971 109.328 16.3864 109.732 15.5479C110.152 14.6943 110.736 14.043 111.484 13.5938C112.248 13.1445 113.132 12.9199 114.135 12.9199C114.614 12.9199 115.041 12.9424 115.415 12.9873C115.804 13.0322 116.074 13.0846 116.224 13.1445V9.34863C116.074 9.31868 115.857 9.28874 115.572 9.25879C115.303 9.21387 114.996 9.19141 114.651 9.19141C113.334 9.19141 112.196 9.58822 111.237 10.3818C110.279 11.1755 109.605 12.2461 109.216 13.5938H109.126V9.64062H105.218V33Z" fill="black"/>
<path d="M127.701 33.4492C129.438 33.4492 130.988 33.1572 132.351 32.5732C133.728 31.9743 134.806 31.1507 135.585 30.1025C136.379 29.0544 136.775 27.849 136.775 26.4863V26.4639C136.775 24.8018 136.296 23.4766 135.338 22.4883C134.38 21.485 132.717 20.6989 130.352 20.1299L126.646 19.2314C125.358 18.917 124.429 18.4827 123.86 17.9287C123.291 17.3747 123.007 16.7008 123.007 15.9072V15.8848C123.007 15.196 123.187 14.597 123.546 14.0879C123.92 13.5638 124.452 13.1595 125.141 12.875C125.829 12.5905 126.646 12.4482 127.589 12.4482C129.041 12.4482 130.187 12.7926 131.025 13.4814C131.879 14.1702 132.381 15.0837 132.53 16.2217L132.553 16.3789H136.281L136.259 16.0869C136.169 14.7842 135.757 13.6162 135.023 12.583C134.305 11.5348 133.309 10.7113 132.036 10.1123C130.778 9.49837 129.296 9.19141 127.589 9.19141C125.912 9.19141 124.422 9.4834 123.119 10.0674C121.831 10.6514 120.821 11.46 120.087 12.4932C119.368 13.5264 119.009 14.7168 119.009 16.0645V16.0869C119.009 17.764 119.548 19.1341 120.626 20.1973C121.704 21.2454 123.344 22.0316 125.545 22.5557L129.251 23.4541C130.584 23.7835 131.505 24.2028 132.014 24.7119C132.523 25.221 132.777 25.8949 132.777 26.7334V26.7559C132.777 27.4596 132.575 28.0736 132.171 28.5977C131.767 29.1068 131.19 29.5036 130.441 29.7881C129.693 30.0576 128.787 30.1924 127.724 30.1924C126.136 30.1924 124.901 29.8704 124.018 29.2266C123.134 28.5677 122.573 27.6543 122.333 26.4863L122.288 26.2617H118.38L118.402 26.4639C118.567 27.8564 119.031 29.0768 119.795 30.125C120.574 31.1732 121.629 31.9893 122.962 32.5732C124.295 33.1572 125.874 33.4492 127.701 33.4492Z" fill="black"/>
<path d="M150.454 33.4492C151.727 33.4492 152.91 33.277 154.003 32.9326C155.096 32.5732 156.069 32.0791 156.923 31.4502C157.776 30.8063 158.473 30.0651 159.012 29.2266C159.566 28.388 159.94 27.4896 160.135 26.5312L160.18 26.3066H156.339L156.271 26.5088C156.047 27.1826 155.673 27.7816 155.148 28.3057C154.624 28.8298 153.973 29.2415 153.194 29.541C152.416 29.8405 151.532 29.9902 150.544 29.9902C149.136 29.9902 147.916 29.6833 146.883 29.0693C145.85 28.4404 145.049 27.542 144.479 26.374C143.925 25.2061 143.648 23.7985 143.648 22.1514V20.6465C143.648 18.9095 143.933 17.4495 144.502 16.2666C145.071 15.0687 145.85 14.1702 146.838 13.5713C147.826 12.9574 148.942 12.6504 150.185 12.6504C151.427 12.6504 152.528 12.9424 153.486 13.5264C154.445 14.0954 155.193 14.9714 155.732 16.1543C156.286 17.3372 156.563 18.8346 156.563 20.6465V22.1514L158.54 19.3213H141.649V22.376H160.472V20.9385C160.472 18.6025 160.06 16.5511 159.236 14.7842C158.413 13.0173 157.23 11.6471 155.688 10.6738C154.16 9.68555 152.333 9.19141 150.207 9.19141C148.081 9.19141 146.231 9.70801 144.659 10.7412C143.087 11.7594 141.867 13.1895 140.998 15.0312C140.13 16.8581 139.695 18.9769 139.695 21.3877V21.4102C139.695 23.8509 140.122 25.9772 140.976 27.7891C141.844 29.5859 143.079 30.9785 144.682 31.9668C146.299 32.9551 148.223 33.4492 150.454 33.4492Z" fill="black"/>
<path d="M166.828 33.3145C167.547 33.3145 168.153 33.0674 168.647 32.5732C169.142 32.0791 169.389 31.4727 169.389 30.7539C169.389 30.0352 169.142 29.4287 168.647 28.9346C168.153 28.4404 167.547 28.1934 166.828 28.1934C166.109 28.1934 165.503 28.4404 165.009 28.9346C164.515 29.4287 164.268 30.0352 164.268 30.7539C164.268 31.4727 164.515 32.0791 165.009 32.5732C165.503 33.0674 166.109 33.3145 166.828 33.3145Z" fill="#2862ED"/>
</svg>

<svg width="170" height="34" fill="none" xmlns="http://www.w3.org/2000/svg"><path d="M15.688 33.54c2.261 0 4.313-.42 6.155-1.259 1.842-.838 3.376-2.021 4.604-3.549 1.228-1.542 2.044-3.346 2.448-5.413l.045-.224h-4.088l-.067.202c-.464 1.422-1.123 2.62-1.976 3.594a8.307 8.307 0 0 1-3.078 2.178c-1.183.495-2.53.742-4.043.742-2.14 0-4.013-.54-5.615-1.618-1.602-1.078-2.845-2.59-3.728-4.537-.869-1.961-1.303-4.252-1.303-6.873v-.022c0-2.636.434-4.92 1.303-6.85.883-1.947 2.119-3.452 3.706-4.515 1.602-1.079 3.481-1.618 5.637-1.618 1.528 0 2.89.247 4.088.742a8.138 8.138 0 0 1 3.033 2.133c.838.914 1.467 2.03 1.886 3.347l.157.494h4.088l-.045-.224c-.404-2.052-1.227-3.841-2.47-5.369-1.228-1.527-2.763-2.717-4.605-3.57C19.98.476 17.935.05 15.688.05c-3.01 0-5.622.689-7.838 2.066C5.633 3.48 3.919 5.41 2.706 7.911c-1.213 2.5-1.82 5.45-1.82 8.85v.022c0 3.4.607 6.357 1.82 8.872 1.213 2.5 2.927 4.44 5.144 5.818 2.23 1.377 4.844 2.066 7.838 2.066Zm27.111-.09c2.156 0 4.043-.495 5.66-1.483 1.617-.988 2.875-2.389 3.773-4.2.914-1.812 1.37-3.961 1.37-6.447v-.045c0-2.485-.456-4.627-1.37-6.423-.898-1.812-2.163-3.205-3.795-4.178-1.618-.988-3.504-1.483-5.66-1.483-2.142 0-4.029.495-5.66 1.483-1.618.973-2.883 2.366-3.797 4.178-.898 1.796-1.347 3.938-1.347 6.423v.045c0 2.471.449 4.62 1.347 6.447.914 1.811 2.179 3.212 3.796 4.2 1.632.988 3.527 1.482 5.683 1.482Zm.022-3.46c-1.377 0-2.583-.337-3.616-1.01-1.018-.69-1.812-1.678-2.38-2.965-.57-1.303-.854-2.868-.854-4.695v-.045c0-1.826.284-3.376.853-4.649.57-1.288 1.363-2.269 2.381-2.942 1.033-.69 2.224-1.034 3.571-1.034 1.378 0 2.576.337 3.594 1.011 1.033.674 1.827 1.655 2.381 2.943.569 1.287.854 2.845.854 4.671v.045c0 1.827-.285 3.392-.854 4.695-.554 1.287-1.34 2.276-2.358 2.965-1.004.673-2.194 1.01-3.572 1.01Zm17.363-8.557h9.523c2.037 0 3.833-.442 5.39-1.326a9.512 9.512 0 0 0 3.662-3.683c.898-1.572 1.347-3.384 1.347-5.436v-.045c0-2.051-.449-3.855-1.347-5.413a9.399 9.399 0 0 0-3.661-3.638C73.54 1.023 71.743.589 69.707.589h-9.523v3.594h8.49c2.32 0 4.118.599 5.39 1.796 1.273 1.198 1.91 2.868 1.91 5.01v.044c0 2.127-.637 3.796-1.91 5.009-1.272 1.198-3.07 1.797-5.39 1.797h-8.49v3.594ZM58.162 33h4.043V.589h-4.043V33Zm30.794.45a8.456 8.456 0 0 0 2.965-.517 8.764 8.764 0 0 0 2.538-1.483 7.63 7.63 0 0 0 1.797-2.246h.09V33h3.908V16.85c0-1.557-.367-2.904-1.1-4.042-.734-1.153-1.775-2.044-3.123-2.673-1.332-.63-2.92-.944-4.762-.944-1.826 0-3.406.315-4.739.944-1.332.614-2.38 1.445-3.144 2.493a7.048 7.048 0 0 0-1.303 3.504l-.022.247h3.773l.045-.202c.224-1.048.793-1.894 1.707-2.538.928-.66 2.141-.989 3.639-.989 1.632 0 2.89.412 3.773 1.236.898.808 1.348 1.924 1.348 3.346v6.896c0 1.123-.292 2.134-.876 3.032-.57.899-1.348 1.61-2.336 2.134-.974.51-2.074.764-3.302.764-1.407 0-2.538-.33-3.392-.989-.838-.659-1.257-1.55-1.257-2.672v-.045c0-1.093.426-1.97 1.28-2.628.868-.66 2.081-1.034 3.639-1.123l8.198-.495v-3.032l-8.648.494c-2.68.15-4.761.824-6.244 2.022-1.482 1.183-2.223 2.77-2.223 4.762v.044c0 1.408.322 2.643.965 3.706.66 1.064 1.573 1.887 2.74 2.471 1.169.584 2.524.876 4.066.876Zm16.262-.45h3.908V18.58c0-1.183.202-2.194.606-3.032.42-.854 1.004-1.505 1.752-1.954.764-.45 1.648-.674 2.651-.674.479 0 .906.022 1.28.067.389.045.659.098.809.158V9.349c-.15-.03-.367-.06-.652-.09a5.636 5.636 0 0 0-.921-.068c-1.317 0-2.455.397-3.414 1.19-.958.794-1.632 1.865-2.021 3.213h-.09V9.64h-3.908V33Zm22.483.45c1.737 0 3.287-.293 4.65-.877 1.377-.599 2.455-1.422 3.234-2.47.794-1.049 1.19-2.254 1.19-3.617v-.022c0-1.662-.479-2.987-1.437-3.976-.958-1.003-2.621-1.79-4.986-2.358l-3.706-.899c-1.288-.314-2.217-.748-2.786-1.302a2.715 2.715 0 0 1-.853-2.022v-.022c0-.689.18-1.288.539-1.797.374-.524.906-.928 1.595-1.213.688-.284 1.505-.427 2.448-.427 1.452 0 2.598.345 3.436 1.033.854.69 1.356 1.603 1.505 2.74l.023.158h3.728l-.022-.292a6.735 6.735 0 0 0-1.236-3.504c-.718-1.048-1.714-1.872-2.987-2.47-1.258-.615-2.74-.922-4.447-.922-1.677 0-3.167.292-4.47.876-1.288.584-2.298 1.393-3.032 2.426-.719 1.033-1.078 2.224-1.078 3.571v.023c0 1.677.539 3.047 1.617 4.11 1.078 1.048 2.718 1.835 4.919 2.359l3.706.898c1.333.33 2.254.749 2.763 1.258.509.509.763 1.183.763 2.021v.023c0 .704-.202 1.318-.606 1.842-.404.509-.981.906-1.73 1.19-.748.27-1.654.404-2.717.404-1.588 0-2.823-.322-3.706-.965-.884-.66-1.445-1.573-1.685-2.74l-.045-.225h-3.908l.022.202c.165 1.392.629 2.613 1.393 3.661.779 1.048 1.834 1.864 3.167 2.448 1.333.584 2.912.876 4.739.876Zm22.753 0c1.273 0 2.456-.173 3.549-.517a10.318 10.318 0 0 0 2.92-1.483 8.634 8.634 0 0 0 2.089-2.223 7.6 7.6 0 0 0 1.123-2.696l.045-.224h-3.841l-.068.202a4.535 4.535 0 0 1-1.123 1.797c-.524.524-1.175.935-1.954 1.235-.778.3-1.662.45-2.65.45-1.408 0-2.628-.308-3.661-.922-1.033-.629-1.834-1.527-2.404-2.695-.554-1.168-.831-2.575-.831-4.223v-1.505c0-1.736.285-3.197.854-4.38.569-1.197 1.348-2.096 2.336-2.695.988-.614 2.104-.92 3.347-.92 1.242 0 2.343.291 3.301.875.959.57 1.707 1.445 2.246 2.628.554 1.183.831 2.68.831 4.492v1.505l1.977-2.83h-16.891v3.055h18.823v-1.438c0-2.335-.412-4.387-1.236-6.154-.823-1.767-2.006-3.137-3.548-4.11-1.528-.988-3.355-1.483-5.481-1.483s-3.976.517-5.548 1.55c-1.572 1.018-2.792 2.449-3.661 4.29-.868 1.827-1.303 3.946-1.303 6.357v.022c0 2.44.427 4.567 1.281 6.38.868 1.796 2.103 3.189 3.706 4.177 1.617.988 3.541 1.482 5.772 1.482Z" fill="#000"/><path d="M166.828 33.315c.719 0 1.325-.248 1.819-.742.495-.494.742-1.1.742-1.82 0-.718-.247-1.324-.742-1.818-.494-.495-1.1-.742-1.819-.742-.719 0-1.325.247-1.819.742-.494.494-.741 1.1-.741 1.819 0 .719.247 1.325.741 1.82.494.493 1.1.74 1.819.74Z" fill="#2862ED"/></svg>
